X:70
T:Paddy on the Handcar
M:4/4
L:1/8
S:from Vivian Williams Workshop in Ellensburg
R:Reel
N:Phil's learning aurally from Stuart Williams
Z:William C. Dunlap  2001-01-17
K:Em
"Am"E2A2A3B|cBAB cBAG|"Em"E2G2G3G|D2G2 G4|
"Am"E2A2A3B|cBAB cBcd|"C"(ede)f "G"gfed|"Am/E"B2A2 "Am"A4:|
|:"Am"e2a2e2a2|edef gfed|"G"B2g2B2g2|BAB^c "D"d4|
"Am"e2a2e2a2|edef gfed|"C"(ede)f "G"gfed|"Am/E"B2A2 "Am"A4:|
% ----------------------------------------------------------------------------
